symbolic/24x24/apps/navicat.svg

<svg xmlns="http://www.w3.org/2000/svg" width="24" height="24" version="1.1">
 <path style="opacity:0.2" d="M 17.271537,5.3573065 C 16.353659,7.127176 15.336123,8.728922 14.34262,10.33934 L 11,15.5 20.649566,15.4982 c 0.669393,-0.09364 1.040196,-0.695615 1.145024,-1.365485 0.737647,-4.6811278 -0.617748,-7.036939 -2.371722,-8.95957 -0.81646,-0.8887351 -1.535133,-0.9657581 -2.151121,0.1842878 z"/>
 <path style="opacity:0.2" d="M 10.900433,2.5003731 C 7.9228329,2.47102 4.8957657,4.1784255 3.389551,6.1971501 2.1529811,7.8551326 1.2064988,9.527636 1,11.53827 H 1.00116 C 1.052728,12.680707 1.6238428,13.442487 2.9168957,13.5 H 11.999999 L 12.56005,9.2877185 C 12.769194,7.7110536 13.055325,6.1241196 12.990705,4.521784 12.938715,3.2397389 11.830253,2.5280044 10.900479,2.500622 Z"/>
 <path style="opacity:0.2" d="M 11.203896,9.5184449 C 9.2968359,9.4133332 7.1193339,9.7403476 5.6830034,10.942582 4.247785,12.144001 3.2830059,13.713588 3.0439599,15.535251 2.7330303,18.593147 4.093647,20.408348 6.4236334,21.744225 11.592941,23.76764 16.678885,21.467967 19.489945,17.927688 20.455438,16.684923 19.856482,15.256986 19.280163,14.430709 17.542589,11.939505 15.314149,9.7450464 11.203712,9.5185016 Z"/>
 <path style="fill:#228c1f" d="M 10.900433,2.0003734 C 7.9228329,1.9710203 4.8957657,3.6784258 3.389551,5.6971504 2.1529811,7.3551329 1.2064988,9.0276363 1,11.03827 H 1.00116 C 1.052728,12.180707 1.6238428,12.942487 2.9168957,13 H 11.999999 L 12.56005,8.7877188 C 12.769194,7.2110539 13.055325,5.6241199 12.990705,4.0217843 12.938715,2.7397392 11.830253,2.0280047 10.900479,2.0006223 Z"/>
 <path style="fill:#ffffff;opacity:0.1" d="M 10.900391 2 C 7.9227905 1.9706469 4.8948866 3.678541 3.3886719 5.6972656 C 2.152102 7.3552481 1.2064988 9.0284288 1 11.039062 L 1.0019531 11.039062 C 1.0064854 11.13947 1.0185538 11.231865 1.03125 11.326172 C 1.2810349 9.4108043 2.1965329 7.7956755 3.3886719 6.1972656 C 4.8948866 4.178541 7.9227905 2.4706469 10.900391 2.5 C 11.823645 2.5271904 12.920052 3.230985 12.986328 4.4960938 C 12.986388 4.3378529 12.996628 4.1800218 12.990234 4.0214844 C 12.938244 2.7394393 11.830165 2.0273824 10.900391 2 z"/>
 <path style="fill:#228c1f" d="M 17.271537,4.8573068 C 16.353659,6.6271763 15.336123,8.2289223 14.34262,9.8393398 L 11,15 20.649566,14.9982 C 21.318959,14.90456 21.689762,14.302585 21.79459,13.632715 22.532237,8.9515875 21.176842,6.5957763 19.422868,4.6731453 18.606408,3.7844102 17.887735,3.7073872 17.271747,4.8574331 Z"/>
 <path style="fill:#ffffff;opacity:0.1" d="M 18.271484 4 C 17.91276 4.0134081 17.579478 4.2823989 17.271484 4.8574219 C 16.353606 6.6272914 15.3353 8.2294263 14.341797 9.8398438 L 11 15 L 11.324219 15 L 14.341797 10.339844 C 15.3353 8.7294258 16.353606 7.1272914 17.271484 5.3574219 C 17.887472 4.207376 18.607368 4.285093 19.423828 5.1738281 C 20.736629 6.612864 21.824736 8.2939617 21.980469 11.011719 C 21.932098 8.008226 20.812293 6.1958035 19.423828 4.6738281 C 19.015598 4.2294606 18.630209 3.9865919 18.271484 4 z"/>
 <path style="fill:#6ccc32" d="M 11.203896,9.0184452 C 9.2968359,8.9133335 7.1193339,9.2403479 5.6830034,10.442582 4.247785,11.644001 3.2830059,13.213588 3.0439599,15.035251 2.7330303,18.093147 4.093647,19.908348 6.4236334,21.244225 11.592941,23.26764 16.678885,20.967967 19.489945,17.427688 20.455438,16.184923 19.856482,14.756986 19.280163,13.930709 17.542589,11.439505 15.314149,9.2450467 11.203712,9.0185019 Z"/>
 <path style="fill:#ffffff;opacity:0.2" d="M 11.203125 9.0175781 C 9.2960649 8.9124664 7.1199243 9.2411253 5.6835938 10.443359 C 4.2483754 11.644778 3.2839679 13.213493 3.0449219 15.035156 C 3.0010352 15.466768 2.996837 15.86771 3.0175781 16.251953 C 3.0209345 16.016924 3.0193588 15.786561 3.0449219 15.535156 C 3.2839679 13.713493 4.2483754 12.144778 5.6835938 10.943359 C 7.1199243 9.741125 9.2960649 9.4124664 11.203125 9.5175781 C 15.313562 9.7441229 17.541723 11.940437 19.279297 14.431641 C 19.59417 14.883079 19.907007 15.514957 19.976562 16.197266 C 20.0602 15.328642 19.670247 14.492151 19.279297 13.931641 C 17.541723 11.440437 15.313562 9.2441229 11.203125 9.0175781 z"/>
</svg>

<svg xmlns="http://www.w3.org/2000/svg" width="24" height="24"><path style="opacity:.2" d="M17.272 5.357c-.918 1.77-1.936 3.372-2.93 4.982L11 15.5l9.65-.002c.669-.093 1.04-.695 1.145-1.365.737-4.681-.618-7.037-2.372-8.96-.817-.889-1.535-.966-2.151.184zM10.9 2.5c-2.977-.029-6.004 1.678-7.51 3.697C2.153 7.855 1.206 9.527 1 11.538h.001c.052 1.143.623 1.904 1.916 1.962H12l.56-4.212c.21-1.577.495-3.164.43-4.766C12.94 3.24 11.83 2.528 10.9 2.5z"/><path style="opacity:.2" d="M11.204 9.518c-1.907-.105-4.085.222-5.521 1.425-1.435 1.201-2.4 2.77-2.639 4.592-.311 3.058 1.05 4.873 3.38 6.21 5.169 2.023 10.255-.277 13.066-3.817.965-1.243.366-2.671-.21-3.497-1.737-2.491-3.966-4.686-8.076-4.912z"/><path style="fill:#228c1f" d="M10.9 2c-2.977-.029-6.004 1.678-7.51 3.697C2.153 7.355 1.206 9.027 1 11.038h.001c.052 1.143.623 1.904 1.916 1.962H12l.56-4.212c.21-1.577.495-3.164.43-4.766C12.94 2.74 11.83 2.028 10.9 2z"/><path style="fill:#fff;opacity:.1" d="M10.9 2C7.923 1.97 4.895 3.679 3.39 5.697 2.152 7.355 1.206 9.028 1 11.04h.002c.004.1.017.193.03.287.249-1.915 1.165-3.53 2.357-5.129C4.895 4.18 7.923 2.471 10.9 2.5c.924.027 2.02.731 2.086 1.996 0-.158.01-.316.004-.475C12.938 2.74 11.83 2.027 10.9 2z"/><path style="fill:#228c1f" d="M17.272 4.857c-.918 1.77-1.936 3.372-2.93 4.982L11 15l9.65-.002c.669-.093 1.04-.695 1.145-1.365.737-4.681-.618-7.037-2.372-8.96-.817-.889-1.535-.966-2.151.184z"/><path style="fill:#fff;opacity:.1" d="M18.271 4c-.358.013-.692.282-1 .857-.917 1.77-1.936 3.372-2.93 4.983L11 15h.324l3.018-4.66c.993-1.61 2.012-3.213 2.93-4.983.615-1.15 1.335-1.072 2.152-.183 1.313 1.439 2.4 3.12 2.556 5.838-.048-3.004-1.168-4.816-2.556-6.338-.408-.445-.794-.687-1.153-.674z"/><path style="fill:#6ccc32" d="M11.204 9.018c-1.907-.105-4.085.222-5.521 1.425-1.435 1.201-2.4 2.77-2.639 4.592-.311 3.058 1.05 4.873 3.38 6.21 5.169 2.023 10.255-.277 13.066-3.817.965-1.243.366-2.671-.21-3.497-1.737-2.491-3.966-4.686-8.076-4.912z"/><path style="fill:#fff;opacity:.2" d="M11.203 9.018c-1.907-.106-4.083.223-5.52 1.425-1.435 1.202-2.399 2.77-2.638 4.592a7.775 7.775 0 0 0-.027 1.217c.003-.235.001-.465.027-.717.239-1.822 1.203-3.39 2.639-4.592 1.436-1.202 3.612-1.53 5.52-1.425 4.11.226 6.338 2.422 8.075 4.914.315.451.628 1.083.698 1.765.083-.868-.307-1.705-.698-2.265-1.737-2.492-3.965-4.688-8.076-4.914z"/></svg>
